!!!OTL: FRISCH AUF FRISCH AUF
!!!OTL-incipit: Reiterlied.
!!!COM: C. M. v. Weber
!!!ARE: Europa, Mitteleuropa, Deutschland
!!!SCT: F0622
!!!TXL: @@DE
!!!YEM: Copyright 1995, estate of Helmut Schaffrath.
**kern	**text
*ICvox	*
*Ivox	*
*clefG2	*
*M4/4	*
*met(c)	*
*k[f#c#]	*
*D:	*
!LO:TX:a:t=Schnell.	!
!LO:TX:a:t=Für die vier Männerſtimmen ohne, einſtimnig mit Begleitung.	!
!LO:TX:a:t=P:only the highest voice encoded:problem	!
{8dd	1._Friſch
=1	=1
4.a	auf,
8ff#	friſch
8dd	auf
8ff#	mit
8dd	raſchem
8ff#	.
=2	=2
4.aa}	Flug,
{8gg	frei
8ff#	liegt
8ee	vor
8dd	dir
8ff#	die
=3	=3
4ee	Welt,
4r}	.
!LO:TX:a:t=parlando.	!
{4ee	wie
8ee	auch
8ff#	des
=4	=4
8ee	Feindes
8dd	.
8cc#	Liſt
8b	und
8a}	Trug
{8b/	uns
8cc#	rings
8dd	um-
=5	=5
4ee/	-gat-
4ee/	-tert
4a	hält.
4r}	.
=6	=6
{4cc#/	Steig',
8.cc#/	ed-
16cc#/	-les
4dd/	Roß,
8r	.
8dd/	und
=7	=7
4.dd#/	bäume
8dd#/	.
4ee/	dich,
4r}	.
=8	=8
{4gg	dort
8ff#	winket
8ee	der
16eeqq	.
8ddL	Ei-
8cc#J	.
8ddL	-chen-
8ff#J	.
=9	=9
2.ee/	-kranʒ!
8r}	.
{8dd/	Streich'
=10	=10
4.a	aus,
8ff#	ſtreich'
8dd	aus
8ff#	und
8dd	trage
8ff#	.
=11	=11
4.aa}	mich
{16ff#L	ʒum
16ggJ	.
8aa	luſt'gen
16eeL	.
16ff#J	.
8gg	Schwertertanʒ,
8ee	.
=12	=12
4.aa}	.
{16ff#L	ʒum
16ggJ	.
8aa	luſt'gen
16eeL	.
16ff#J	.
8gg	Schwerter-
8ee	.
=13	=13
2dd	-tanʒ.
4r	.
8r}	.
==	==
!!!AGN: Soldaten -, Reiter - Lied
!!!ONB: ESAC (Essen Associative Code) Database: FINK
!!!AMT: simple quadruple
!!!AIN: vox
!!!EED: Helmut Schaffrath
!!!EEV: 1.0
!!!GTL: Soldaten- und Jaegerlieder
!!Text: Th. Koerner
!!!source: Musikalischer Hausschatz der Deutschen. Eine Sammlung von über 1000 Liedern und Gesängen mit Singstimmen und Klavierbegleitung. Leipzig, Litterarisches Verlags-Haus.
!!!page: 407
!!!URL-scan: https://www.digitale-sammlungen.de/en/view/bsb11144622?page=374
!!!ENC: Anna Maria Matuszewska
!!!EEV: 2024/08/02
*-	*-